.local/share/icons/Gruvbox-Plus-Dark/mimetypes/scalable/application-x-python-bytecode.svg

<svg width="256" height="256" viewBox="0 0 256 256" fill="none" xmlns="http://www.w3.org/2000/svg">
<g opacity="0.4" filter="url(#filter0_f)">
<path d="M55.0839 15.5636H155.608L216.009 75.7129L216.011 224.609C216.011 233.52 208.749 240.737 199.838 240.737H55.0838C46.1734 240.737 39 233.564 39 224.654V31.6474C39 22.737 46.1734 15.5636 55.0838 15.5636H55.0839Z" fill="#282828"/>
</g>
<path d="M55.0839 15H155.608L216.009 75.1493L216.011 224.045C216.011 232.956 208.749 240.174 199.838 240.174H55.0838C46.1734 240.174 39 233 39 224.09V31.0838C39 22.1734 46.1734 15 55.0838 15H55.0839Z" fill="#ebdbb2"/>
<path fill-rule="evenodd" clip-rule="evenodd" d="M155.608 20.3191H55.0839C49.1112 20.3191 44.3191 25.1111 44.3191 31.0838V224.09C44.3191 230.063 49.1111 234.855 55.0838 234.855H199.838C205.83 234.855 210.692 229.999 210.692 224.046V75.1493L155.608 20.3191ZM155.608 15H55.0839C46.1735 15 39 22.1734 39 31.0838V224.09C39 233 46.1734 240.174 55.0838 240.174H199.838C208.749 240.174 216.011 232.956 216.011 224.045L216.009 75.1493L155.608 15Z" fill="url(#paint0_linear)"/>
<path d="M125.931 68C112.176 68 101.104 73.5361 101.104 80.4136V96.965H125.931V101.104H80.4136C73.5361 101.104 68 112.175 68 125.931V130.069C68 143.824 73.5361 154.896 80.4136 154.896H96.965V142.482C96.965 142.482 96.965 125.931 113.518 125.931H146.62C146.62 125.931 154.896 125.931 154.896 117.655V80.4136C154.896 73.5361 143.824 68 130.069 68H125.931ZM113.518 76.2757C114.615 76.2757 115.667 76.7117 116.443 77.4877C117.219 78.2637 117.655 79.3161 117.655 80.4136C117.655 81.511 117.219 82.5635 116.443 83.3395C115.667 84.1155 114.615 84.5514 113.518 84.5514C112.42 84.5514 111.368 84.1155 110.592 83.3395C109.816 82.5635 109.38 81.511 109.38 80.4136C109.38 79.3161 109.816 78.2637 110.592 77.4877C111.368 76.7117 112.42 76.2757 113.518 76.2757V76.2757Z" fill="url(#paint1_linear)"/>
<path d="M130.069 188C143.824 188 154.896 182.464 154.896 175.586V159.035H130.069V154.896H175.586C182.464 154.896 188 143.824 188 130.069V125.931C188 112.176 182.464 101.104 175.586 101.104H159.035V117.655C159.035 130.069 146.62 130.069 146.62 130.069H113.517C101.104 130.069 101.104 142.482 101.104 142.482V175.586C101.104 182.464 112.176 188 125.931 188H130.069ZM142.482 175.586C141.385 175.586 140.333 175.15 139.557 174.374C138.781 173.598 138.345 172.546 138.345 171.449C138.345 170.351 138.781 169.299 139.557 168.523C140.333 167.747 141.385 167.311 142.482 167.311C143.58 167.311 144.632 167.747 145.408 168.523C146.184 169.299 146.62 170.351 146.62 171.449C146.62 172.546 146.184 173.598 145.408 174.374C144.632 175.15 143.58 175.586 142.482 175.586Z" fill="url(#paint2_linear)"/>
<path opacity="0.25" d="M155.608 17V61.2306C155.608 70.141 162.867 77.1605 171.777 77.1605L216.009 77.1493V75.1493L155.608 17Z" fill="#282828"/>
<path d="M155.608 15V59.2306C155.608 68.141 162.867 75.1605 171.777 75.1605L216.009 75.1493L155.608 15Z" fill="url(#paint3_linear)"/>
<defs>
<filter id="filter0_f" x="23.8778" y="0.441412" width="207.255" height="255.418" filterUnits="userSpaceOnUse" color-interpolation-filters="sRGB">
<feFlood flood-opacity="0" result="BackgroundImageFix"/>
<feBlend mode="normal" in="SourceGraphic" in2="BackgroundImageFix" result="shape"/>
<feGaussianBlur stdDeviation="7.5611" result="effect1_foregroundBlur"/>
</filter>
<linearGradient id="paint0_linear" x1="39" y1="15" x2="39" y2="240.174" gradientUnits="userSpaceOnUse">
<stop offset="1e-07" stop-color="#076678"/>
<stop offset="1" stop-color="#458588"/>
</linearGradient>
<linearGradient id="paint1_linear" x1="68" y1="68" x2="68" y2="154.896" gradientUnits="userSpaceOnUse">
<stop offset="1e-07" stop-color="#076678"/>
<stop offset="1" stop-color="#458588"/>
</linearGradient>
<linearGradient id="paint2_linear" x1="101.104" y1="101.104" x2="101.104" y2="188" gradientUnits="userSpaceOnUse">
<stop offset="1e-07" stop-color="#fabd2f"/>
<stop offset="0.5" stop-color="#fabd2f"/>
<stop offset="1" stop-color="#d79921"/>
</linearGradient>
<linearGradient id="paint3_linear" x1="155.608" y1="15" x2="155.608" y2="75.1605" gradientUnits="userSpaceOnUse">
<stop offset="1e-07" stop-color="#076678"/>
<stop offset="1" stop-color="#458588"/>
</linearGradient>
</defs>
</svg>

<svg width="256" height="256" fill="none" version="1.1" viewBox="0 0 256 256" xmlns="http://www.w3.org/2000/svg">
  <path d="m55.08 15h100.5l60.4 60.15 2e-3 148.9c0 8.911-7.262 16.13-16.17 16.13h-144.8c-8.91 0-16.08-7.174-16.08-16.08v-193c0-8.91 7.173-16.08 16.08-16.08h1e-4z" fill="#ebdbb2"/>
  <path d="m155.6 20.32h-100.5c-5.973 0-10.76 4.792-10.76 10.76v193c0 5.973 4.792 10.76 10.76 10.76h144.8c5.992 0 10.85-4.856 10.85-10.81v-148.9l-55.08-54.83zm0-5.319h-100.5c-8.91 0-16.08 7.173-16.08 16.08v193c0 8.91 7.173 16.08 16.08 16.08h144.8c8.911 0 16.17-7.218 16.17-16.13l-2e-3 -148.9-60.4-60.15z" clip-rule="evenodd" fill="url(#paint0_linear)" fill-rule="evenodd"/>
  <path d="m125.9 68c-13.76 0-24.83 5.536-24.83 12.41v16.55h24.83v4.139h-45.52c-6.878 0-12.41 11.07-12.41 24.83v4.138c0 13.76 5.536 24.83 12.41 24.83h16.55v-12.41s0-16.55 16.55-16.55h33.1s8.276 0 8.276-8.276v-37.24c0-6.878-11.07-12.41-24.83-12.41h-4.138zm-12.41 8.276c1.097 0 2.149 0.436 2.925 1.212s1.212 1.828 1.212 2.926c0 1.097-0.436 2.15-1.212 2.926s-1.828 1.212-2.925 1.212c-1.098 0-2.15-0.4359-2.926-1.212s-1.212-1.828-1.212-2.926c0-1.098 0.436-2.15 1.212-2.926s1.828-1.212 2.926-1.212z" fill="url(#paint1_linear)"/>
  <path d="m130.1 188c13.76 0 24.83-5.536 24.83-12.41v-16.55h-24.83v-4.139h45.52c6.878 0 12.41-11.07 12.41-24.83v-4.138c0-13.76-5.536-24.83-12.41-24.83h-16.55v16.55c0 12.41-12.42 12.41-12.42 12.41h-33.1c-12.41 0-12.41 12.41-12.41 12.41v33.1c0 6.878 11.07 12.41 24.83 12.41h4.138zm12.41-12.41c-1.097 0-2.149-0.436-2.925-1.212s-1.212-1.828-1.212-2.925c0-1.098 0.436-2.15 1.212-2.926s1.828-1.212 2.925-1.212c1.098 0 2.15 0.436 2.926 1.212s1.212 1.828 1.212 2.926c0 1.097-0.436 2.149-1.212 2.925s-1.828 1.212-2.926 1.212z" fill="url(#paint2_linear)"/>
  <path d="m155.6 17v44.23c0 8.91 7.259 15.93 16.17 15.93l44.23-0.0112v-2l-60.4-58.15z" fill="#282828" opacity=".25"/>
  <path d="m155.6 15v44.23c0 8.91 7.259 15.93 16.17 15.93l44.23-0.0112-60.4-60.15z" fill="url(#paint3_linear)"/>
  <defs>
    <linearGradient id="paint0_linear" x1="39" x2="39" y1="15" y2="240.2" gradientUnits="userSpaceOnUse">
      <stop stop-color="#076678" offset="1e-7"/>
      <stop stop-color="#458588" offset="1"/>
    </linearGradient>
    <linearGradient id="paint1_linear" x1="68" x2="68" y1="68" y2="154.9" gradientUnits="userSpaceOnUse">
      <stop stop-color="#076678" offset="1e-7"/>
      <stop stop-color="#458588" offset="1"/>
    </linearGradient>
    <linearGradient id="paint2_linear" x1="101.1" x2="101.1" y1="101.1" y2="188" gradientUnits="userSpaceOnUse">
      <stop stop-color="#fabd2f" offset="1e-7"/>
      <stop stop-color="#fabd2f" offset=".5"/>
      <stop stop-color="#d79921" offset="1"/>
    </linearGradient>
    <linearGradient id="paint3_linear" x1="155.6" x2="155.6" y1="15" y2="75.16" gradientUnits="userSpaceOnUse">
      <stop stop-color="#076678" offset="1e-7"/>
      <stop stop-color="#458588" offset="1"/>
    </linearGradient>
  </defs>
</svg>
